svg/24/logo-corsair.svg

<svg width="24" height="24" viewBox="0 0 24 24" fill="currentColor" xmlns="http://www.w3.org/2000/svg"><path d="M14.269 6.747C14.5736 5.3531 12.9241 2.00258 12.9241 2.00258L12.9216 2C21.4063 7.33037 19.0496 10.4331 19.0496 10.4331C18.572 8.1409 14.269 6.747 14.269 6.747Z"/><path d="M12.0045 9.35671C11.8075 8.54386 11.6181 7.76274 11.2671 7.02834H11.2697L8.45091 5.1569C8.45091 5.1569 9.89902 7.42328 9.67186 8.91269L12.1241 9.84454C12.083 9.68075 12.0436 9.51811 12.0045 9.35671Z"/><path d="M6.91494 9.33606C7.18598 10.0511 7.49574 10.9494 7.65836 11.7238L5.44619 11.1739C5.67334 9.68454 4.2717 7.88537 4.2717 7.88537L6.91494 9.33864V9.33606Z"/><path d="M11.7367 5.75752C11.735 5.75635 11.7342 5.75576 11.7342 5.75576V5.75318L11.7367 5.75752Z"/><path d="M11.7367 5.75752C12.5897 7.23555 13.136 8.91703 13.3036 10.717C13.5359 13.2054 12.9913 15.5879 11.8762 17.6529C12.3873 15.8899 12.5731 13.9591 12.3873 11.9689C12.3848 11.9389 12.3825 11.9091 12.3802 11.8792C12.3701 11.7499 12.3602 11.6219 12.3434 11.494L7.6067 8.33963C8.13844 9.52961 8.47659 10.8254 8.60566 12.1909C8.81474 14.4418 8.38367 16.6101 7.47763 18.5306C7.88548 16.9095 8.01454 15.162 7.84676 13.3628C7.84288 13.328 7.8403 13.2931 7.83772 13.2583C7.83514 13.2234 7.83256 13.1886 7.82869 13.1538L3.3966 10.8048C3.89996 11.8502 4.21229 12.9911 4.32587 14.1966C4.60207 17.1367 3.56181 19.8651 1.64648 21.9998C20.5545 13.9849 21.3134 19.2637 21.3134 19.2637C21.3134 19.2637 22.7408 17.3948 22.2504 15.3737C21.6059 12.7088 11.9156 5.88331 11.7367 5.75752Z"/></svg>

<svg xmlns="http://www.w3.org/2000/svg" width="24" height="24" fill="currentColor" viewBox="0 0 24 24">
  <path d="M14.269 6.747c.305-1.394-1.345-4.744-1.345-4.744L12.922 2c8.484 5.33 6.128 8.433 6.128 8.433-.478-2.292-4.781-3.686-4.781-3.686Zm-2.264 2.61c-.198-.813-.387-1.594-.738-2.329h.003L8.45 5.157S9.9 7.423 9.673 8.913l2.452.932-.12-.488Zm-5.09-.021c.271.715.58 1.613.743 2.388l-2.212-.55c.227-1.49-1.174-3.289-1.174-3.289L6.915 9.34v-.003Zm4.822-3.578a.106.106 0 0 1-.003-.002v-.003l.003.005Z"/>
  <path d="M11.737 5.758a12.156 12.156 0 0 1 1.567 4.959 12.157 12.157 0 0 1-1.428 6.936c.511-1.763.697-3.694.511-5.684l-.007-.09c-.01-.13-.02-.257-.037-.385L7.607 8.34c.531 1.19.87 2.485.999 3.85a12.172 12.172 0 0 1-1.128 6.34c.407-1.62.537-3.368.369-5.167l-.01-.105a2.835 2.835 0 0 0-.008-.104l-4.432-2.35a9.935 9.935 0 0 1 .929 3.393c.276 2.94-.764 5.668-2.68 7.803 18.909-8.015 19.667-2.736 19.667-2.736s1.428-1.87.937-3.89c-.644-2.665-10.334-9.49-10.513-9.616Z"/>
</svg>
